raw/symbols/frx-eth-exchange-rate.svg

<svg width="36" height="36" viewBox="0 0 36 36" fill="none" xmlns="http://www.w3.org/2000/svg">
<path d="M17.9991 35.9982C15.5697 35.9982 13.2126 35.522 10.9927 34.5835C8.84906 33.6767 6.92508 32.3788 5.27159 30.7266C3.61938 29.0744 2.32148 27.1491 1.41473 25.0055C0.476234 22.7856 0 20.4285 0 17.9991C0 15.5697 0.476234 13.2126 1.41473 10.9927C2.32148 8.84906 3.61938 6.92508 5.27159 5.27159C6.92508 3.61938 8.84906 2.32148 10.9927 1.41473C13.2126 0.476234 15.5697 0 17.9991 0C20.4285 0 22.7856 0.476234 25.0055 1.41473C27.1491 2.32148 29.0731 3.61938 30.7266 5.27159C32.3788 6.92381 33.6767 8.84906 34.5835 10.9927C35.522 13.2126 35.9982 15.5697 35.9982 17.9991C35.9982 20.4285 35.522 22.7856 34.5835 25.0055C33.6767 27.1491 32.3788 29.0731 30.7266 30.7266C29.0744 32.3788 27.1491 33.6767 25.0055 34.5835C22.7856 35.5232 20.4285 35.9982 17.9991 35.9982Z" fill="white"/>
<path d="M17.999 35.0439C27.4129 35.0439 35.0443 27.4124 35.0443 17.9985C35.0443 8.58459 27.4129 0.953125 17.999 0.953125C8.58508 0.953125 0.953613 8.58459 0.953613 17.9985C0.953613 27.4124 8.58508 35.0439 17.999 35.0439Z" fill="black"/>
<path d="M18.4182 14.7988V22.6522L26.1065 17.9928L18.4182 14.7988Z" fill="white"/>
<path d="M18.4182 13.9137L26.0367 17.0797L24.2156 14.1105L28.0877 10.2384L25.7738 7.92326L22.4567 11.2417L18.4182 4.6582V13.9137Z" fill="white"/>
<path d="M17.5992 22.6522V14.7988L9.91089 17.9928L17.5992 22.6522Z" fill="white"/>
<path d="M9.9814 17.0797L17.5999 13.9137V4.6582L13.5627 11.2417L10.2443 7.92326L7.93042 10.2384L11.8025 14.1092L9.9814 17.0797Z" fill="white"/>
<path d="M26.0202 20.4375L18.4182 25.0449V31.147L21.5461 26.739L24.8112 30.0041L27.125 27.6902L23.4676 24.0327L26.0202 20.4375Z" fill="white"/>
<path d="M17.6004 25.0449L9.99842 20.4375L12.551 24.0327L8.89355 27.6902L11.2074 30.0041L14.4725 26.7403L17.6004 31.1458V25.0449Z" fill="white"/>
</svg>

<svg xmlns="http://www.w3.org/2000/svg" width="36" height="36" fill="none"><path fill="#fff" d="M18 35.998a17.956 17.956 0 0 1-12.728-5.272A17.941 17.941 0 0 1 0 18 17.955 17.955 0 0 1 5.272 5.271 17.955 17.955 0 0 1 17.999 0a17.956 17.956 0 0 1 12.728 5.272 17.942 17.942 0 0 1 5.271 12.727 17.957 17.957 0 0 1-5.272 12.728A17.943 17.943 0 0 1 18 35.998Z"/><path fill="#000" d="M17.999 35.044c9.414 0 17.045-7.632 17.045-17.045C35.044 8.585 27.413.953 18 .953 8.585.953.954 8.585.954 18c0 9.413 7.631 17.045 17.045 17.045Z"/><path fill="#fff" d="M18.418 14.799v7.853l7.689-4.66-7.689-3.193ZM18.418 13.914l7.619 3.166-1.821-2.97 3.872-3.872-2.314-2.315-3.317 3.319-4.039-6.584v9.256ZM17.6 22.652V14.8l-7.69 3.194 7.69 4.66ZM9.981 17.08l7.619-3.166V4.658l-4.037 6.584-3.319-3.319-2.314 2.315 3.873 3.871-1.822 2.97ZM26.02 20.438l-7.602 4.607v6.102l3.128-4.408 3.265 3.265 2.314-2.314-3.657-3.657 2.552-3.596ZM17.6 25.045l-7.602-4.608 2.553 3.596-3.657 3.657 2.313 2.314 3.265-3.264 3.128 4.406v-6.101Z"/></svg>
